desktop/resources/assets/square.svg

<svg width="16" height="16" viewBox="0 0 16 16" fill="none" xmlns="http://www.w3.org/2000/svg">
<path d="M2 4.5C2 3.11929 3.11929 2 4.5 2H11.5C12.8807 2 14 3.11929 14 4.5V11.5C14 12.8807 12.8807 14 11.5 14H4.5C3.11929 14 2 12.8807 2 11.5V4.5ZM4.5 3C3.67157 3 3 3.67157 3 4.5V11.5C3 12.3284 3.67157 13 4.5 13H11.5C12.3284 13 13 12.3284 13 11.5V4.5C13 3.67157 12.3284 3 11.5 3H4.5Z" fill="#888"/>
</svg>

<svg xmlns="http://www.w3.org/2000/svg" width="16" height="16" fill="none"><path fill="#888" d="M2 4.5A2.5 2.5 0 0 1 4.5 2h7A2.5 2.5 0 0 1 14 4.5v7a2.5 2.5 0 0 1-2.5 2.5h-7A2.5 2.5 0 0 1 2 11.5zM4.5 3A1.5 1.5 0 0 0 3 4.5v7A1.5 1.5 0 0 0 4.5 13h7a1.5 1.5 0 0 0 1.5-1.5v-7A1.5 1.5 0 0 0 11.5 3z"/></svg>
